src/Resources/ssw_in_none128.svg

<svg width="128" height="128" xmlns="http://www.w3.org/2000/svg">
 <metadata id="metadata16">image/svg+xml</metadata>

 <g>
  <title>background</title>
  <rect x="-1" y="-1" width="130" height="130" id="canvas_background" fill="none"/>
 </g>
 <g>
  <title>Layer 1</title>
  <path d="m4,68c7.678,5.7435 19.9588,8.0901 29,11.3079c3.2247,1.1476 7.5121,3.3335 11,2.5085c5.5261,-1.3073 10.7889,-7.8341 15,-11.392c10.8104,-9.1338 21.3229,-19.4399 33,-27.4244c-7.4502,8.5344 -14.6611,17.3004 -21.9198,26c-4.526,5.4245 -9.8316,10.7044 -13.0802,17c11.0717,4.2393 22.726,7.0089 34,10.6698c3.0627,0.9945 9.324,4.2192 12.411,2.2121c1.782,-1.1582 2.014,-4.0141 2.472,-5.8827c1.393,-5.6702 2.886,-11.3179 4.233,-16.9992c3.239,-13.6648 6.356,-27.3748 9.757,-41c2.294,-9.1865 5.374,-18.5331 6.127,-28c-15.141,4.3617 -29.8865,14.6963 -44,21.7531c-25.886,12.943 -53.0095,24.6608 -78,39.2469z" id="path4" fill="#197dbf"/>
  <path d="m58,95c0,9.296 0.7022,18.831 -1,28c6.6657,-4.044 13.265,-15.784 16,-23c-4.9366,-1.9044 -9.8359,-3.8053 -15,-5z" id="path8" fill="#197dbf"/>
  <rect id="rect15661" width="17.2582" height="16.107653" x="9.779646" y="7.576119" fill-opacity="0" fill="#000000"/>
  <path d="m97.873435,98.937678c-0.9625,-0.253628 -2.93125,-0.910253 -4.375,-1.45917c-2.499738,-0.950408 -4.812143,-1.665398 -21.625,-6.686398c-6.949468,-2.075392 -14.027085,-4.452135 -14.451027,-4.852817c-0.544573,-0.514695 3.571495,-6.230483 9.149974,-12.706133c2.099793,-2.437497 7.292915,-8.594312 11.540275,-13.681812c4.24736,-5.0875 9.109215,-10.84558 10.804125,-12.79573c1.694908,-1.950153 3.081653,-3.614933 3.081653,-3.69951c0,-0.384793 -6.79618,4.676682 -11.331865,8.43944c-3.810435,3.161097 -23.515757,20.480655 -27.540735,24.20632c-5.126565,4.745335 -8.427342,6.4734 -11.709567,6.13034c-0.839843,-0.08778 -2.824303,-0.619933 -4.40991,-1.182558c-2.909413,-1.032355 -8.977647,-3.01786 -17.549348,-5.74208c-6.789926,-2.157947 -12.110685,-4.517125 -14.656266,-6.498465l-0.57269,-0.44575l3.337826,-1.884067c11.649135,-6.575465 25.8335,-13.776413 49.057555,-24.904945c19.781335,-9.478847 28.78364,-13.977097 35.25,-17.61364c10.639345,-5.983342 14.147585,-7.893028 18.532755,-10.08818c4.30477,-2.154902 11.27353,-5.078046 14.02974,-5.884971l1.3125,-0.384254l0,0.962437c0,1.729725 -1.24295,8.374862 -2.48879,13.305723c-0.67118,2.65644 -2.3452,9.27364 -3.72004,14.70489c-1.37484,5.43125 -3.97725,16.175 -5.78313,23.875c-4.82161,20.558662 -8.74717,36.367362 -9.301,37.45629c-0.92775,1.824112 -3.20716,2.319347 -6.582035,1.43004z" id="path15776" stroke-width="0.25" fill="#ffffff"/>
  <path d="m57.248435,122.54839c0,-0.0891 0.191874,-1.53114 0.426388,-3.20453c0.345262,-2.46364 0.428502,-5.05214 0.4375,-13.60491c0.0061,-5.809319 0.08649,-10.562444 0.178619,-10.5625c1.199633,-0.000732 14.457493,4.603002 14.457493,5.0203c0,0.56187 -2.485749,5.80133 -4.036429,8.50798c-3.030854,5.29025 -5.968469,9.28349 -8.595873,11.68479c-1.536853,1.4046 -2.867698,2.40649 -2.867698,2.15887z" id="path15778" stroke-width="0.25" fill="#ffffff"/>
  <path d="m94.111555,97.528235c-2.483655,-0.847485 -9.210628,-2.954464 -14.948827,-4.682175c-10.865413,-3.271462 -20.382901,-6.348828 -21.166214,-6.843848c-0.397442,-0.251164 -0.391453,-0.422855 0.0468,-1.341876c0.744356,-1.560931 4.584602,-6.548331 9.64827,-12.530393c2.464872,-2.911923 8.252599,-9.779076 12.861614,-15.260341c4.609018,-5.481265 9.076766,-10.773028 9.928334,-11.759472c0.851567,-0.986444 1.464146,-1.877695 1.361288,-1.980556c-0.102861,-0.102858 -1.395667,0.68552 -2.872906,1.751953c-5.559106,4.013173 -12.458845,9.857498 -29.543699,25.024548c-9.891594,8.781245 -11.176325,9.809148 -13.709601,10.968921c-3.059919,1.400877 -4.193006,1.175171 -19.36593,-3.857584c-8.423205,-2.793919 -14.374871,-4.954173 -16.6618,-6.04767c-3.380573,-1.616425 -5.300692,-2.827305 -4.959246,-3.127441c0.30129,-0.264839 9.246834,-5.168401 14.481752,-7.938274c7.990179,-4.227725 17.921457,-9.150492 39.228702,-19.445006c21.745863,-10.506435 26.537143,-12.944509 38.941614,-19.815703c4.796104,-2.656701 10.892454,-5.896145 13.547444,-7.198762c4.60373,-2.258728 11.95437,-5.350256 13.78102,-5.796011c0.81447,-0.198754 0.85645,-0.154017 0.85645,0.912753c0,2.038715 -1.55812,9.203871 -4.98552,22.926309c-1.86103,7.451095 -5.08262,20.69489 -7.1591,29.430657c-5.44107,22.890691 -8.27087,34.202338 -9.09978,36.374784c-0.87815,2.301521 -3.94782,2.372226 -10.210665,0.235187z" id="path13" stroke-width="0.311436" fill="#808080"/>
  <path d="m57.480609,121.62574c0.502773,-2.38534 0.810851,-8.89498 0.813275,-17.18436c0.0015,-5.010221 0.120797,-9.109491 0.265181,-9.109491c0.488503,0 6.723051,2.057023 10.404645,3.432902c3.277328,1.224797 3.639582,1.434249 3.465832,2.003929c-0.486605,1.59542 -4.664677,9.38586 -6.61097,12.32681c-2.264264,3.42143 -5.124013,6.74434 -7.260669,8.43661l-1.269491,1.00545l0.192197,-0.91185z" id="path15" stroke-width="0.311436" fill="#808080"/>
  <path id="svg_2" d="m6.96951,127.55622l20.96074,-36.68131l20.96074,36.68131l-41.92148,0z" stroke-opacity="null" stroke-width="null" fill="#C06000" stroke="null" transform="rotate(180 27.930252075195312,109.21556091308594) "/>
 </g>
</svg>

<?xml version="1.0" encoding="UTF-8" standalone="no"?>
<svg
   xmlns:dc="http://purl.org/dc/elements/1.1/"
   xmlns:cc="http://creativecommons.org/ns#"
   xmlns:rdf="http://www.w3.org/1999/02/22-rdf-syntax-ns#"
   xmlns:svg="http://www.w3.org/2000/svg"
   xmlns="http://www.w3.org/2000/svg"
   xmlns:sodipodi="http://sodipodi.sourceforge.net/DTD/sodipodi-0.dtd"
   xmlns:inkscape="http://www.inkscape.org/namespaces/inkscape"
   width="128"
   height="128"
   version="1.1"
   id="svg10"
   sodipodi:docname="ssw_in_none128.svg"
   inkscape:version="0.92.2pre0 (973e216, 2017-07-25)">
  <metadata
     id="metadata16">
    <rdf:RDF>
      <cc:Work
         rdf:about="">
        <dc:format>image/svg+xml</dc:format>
        <dc:type
           rdf:resource="http://purl.org/dc/dcmitype/StillImage" />
        <dc:title></dc:title>
      </cc:Work>
    </rdf:RDF>
  </metadata>
  <defs
     id="defs14" />
  <sodipodi:namedview
     pagecolor="#ffffff"
     bordercolor="#666666"
     borderopacity="1"
     objecttolerance="10"
     gridtolerance="10"
     guidetolerance="10"
     inkscape:pageopacity="0"
     inkscape:pageshadow="2"
     inkscape:window-width="1920"
     inkscape:window-height="998"
     id="namedview12"
     showgrid="false"
     inkscape:zoom="3.2109375"
     inkscape:cx="153.84497"
     inkscape:cy="51.790252"
     inkscape:window-x="0"
     inkscape:window-y="0"
     inkscape:window-maximized="1"
     inkscape:current-layer="svg10" />
  <path
     style="fill:#197dbf; stroke:none;"
     d="M4 68C11.678 73.7435 23.9588 76.0901 33 79.3079C36.2247 80.4555 40.5121 82.6414 44 81.8164C49.5261 80.5091 54.7889 73.9823 59 70.4244C69.8104 61.2906 80.3229 50.9845 92 43C84.5498 51.5344 77.3389 60.3004 70.0802 69C65.5542 74.4245 60.2486 79.7044 57 86C68.0717 90.2393 79.726 93.0089 91 96.6698C94.0627 97.6643 100.324 100.889 103.411 98.8819C105.193 97.7237 105.425 94.8678 105.883 92.9992C107.276 87.329 108.769 81.6813 110.116 76C113.355 62.3352 116.472 48.6252 119.873 35C122.167 25.8135 125.247 16.4669 126 7C110.859 11.3617 96.1135 21.6963 82 28.7531C56.114 41.6961 28.9905 53.4139 4 68z"
     id="path4" />
  <path
     style="fill:#197dbf; stroke:none;"
     d="M58 95C58 104.296 58.7022 113.831 57 123C63.6657 118.956 70.265 107.216 73 100C68.0634 98.0956 63.1641 96.1947 58 95z"
     id="path8" />
  <rect
     style="fill:#000000;fill-opacity:0"
     id="rect15661"
     width="17.2582"
     height="16.107653"
     x="9.7796459"
     y="7.5761194" />
  <rect
     style="fill:#197dbf;fill-opacity:1"
     id="rect15669-3"
     width="23.777964"
     height="23.777964"
     x="7.1365881"
     y="99.980408"
     ry="11.888982"
     rx="11.888982" />
  <path
     style="fill:#ff0000;fill-opacity:1;stroke-width:0.19175777"
     d="m 16.411481,123.37618 c -2.109273,-0.45784 -3.965383,-1.51703 -5.690595,-3.24735 -2.4295978,-2.43679 -3.4382572,-4.89313 -3.4278126,-8.34758 0.00524,-1.73185 0.086174,-2.24261 0.5786815,-3.65187 0.7143458,-2.04402 1.673457,-3.50467 3.2496291,-4.94895 4.128556,-3.783072 10.18567,-4.140957 14.780862,-0.87333 2.247276,1.59803 3.909883,4.05445 4.592972,6.78589 0.432935,1.73116 0.279884,5.00648 -0.312519,6.68795 -0.560424,1.5907 -2.062031,3.81805 -3.309979,4.90972 -2.787055,2.43805 -6.825338,3.47472 -10.461239,2.68552 z"
     id="path15705"
     inkscape:connector-curvature="0" />
  <path
     style="fill:#ffffff;fill-opacity:1;stroke-width:0.25"
     d="m 97.873435,98.937678 c -0.9625,-0.253628 -2.93125,-0.910253 -4.375,-1.45917 C 90.998697,96.5281 88.686292,95.81311 71.873435,90.79211 64.923967,88.716718 57.84635,86.339975 57.422408,85.939293 56.877835,85.424598 60.993903,79.70881 66.572382,73.23316 c 2.099793,-2.437497 7.292915,-8.594312 11.540275,-13.681812 4.24736,-5.0875 9.109215,-10.84558 10.804125,-12.79573 1.694908,-1.950153 3.081653,-3.614933 3.081653,-3.69951 0,-0.384793 -6.79618,4.676682 -11.331865,8.43944 -3.810435,3.161097 -23.515757,20.480655 -27.540735,24.20632 -5.126565,4.745335 -8.427342,6.4734 -11.709567,6.13034 -0.839843,-0.08778 -2.824303,-0.619933 -4.40991,-1.182558 C 34.096945,79.617295 28.028711,77.63179 19.45701,74.90757 12.667084,72.749623 7.3463254,70.390445 4.8007444,68.409105 L 4.2280536,67.963355 7.5658797,66.079288 C 19.215015,59.503823 33.39938,52.302875 56.623435,41.174343 c 19.781335,-9.478847 28.78364,-13.977097 35.25,-17.61364 10.639345,-5.983342 14.147585,-7.893028 18.532755,-10.08818 4.30477,-2.154902 11.27353,-5.0780457 14.02974,-5.8849706 l 1.3125,-0.3842545 v 0.9624367 c 0,1.7297253 -1.24295,8.3748624 -2.48879,13.3057234 -0.67118,2.65644 -2.3452,9.27364 -3.72004,14.70489 -1.37484,5.43125 -3.97725,16.175 -5.78313,23.875 -4.82161,20.558662 -8.74717,36.367362 -9.301,37.45629 -0.92775,1.824112 -3.20716,2.319347 -6.582035,1.43004 z"
     id="path15776"
     inkscape:connector-curvature="0" />
  <path
     style="fill:#ffffff;fill-opacity:1;stroke-width:0.25"
     d="m 57.248435,122.54839 c 0,-0.0891 0.191874,-1.53114 0.426388,-3.20453 0.345262,-2.46364 0.428502,-5.05214 0.4375,-13.60491 0.0061,-5.809319 0.08649,-10.562444 0.178619,-10.5625 1.199633,-7.32e-4 14.457493,4.603002 14.457493,5.0203 0,0.56187 -2.485749,5.80133 -4.036429,8.50798 -3.030854,5.29025 -5.968469,9.28349 -8.595873,11.68479 -1.536853,1.4046 -2.867698,2.40649 -2.867698,2.15887 z"
     id="path15778"
     inkscape:connector-curvature="0" />
  <path
     style="fill:#808080;fill-opacity:1;stroke-width:0.31143552"
     d="M 94.111555,97.528235 C 91.6279,96.68075 84.900927,94.573771 79.162728,92.84606 68.297315,89.574598 58.779827,86.497232 57.996514,86.002212 c -0.397442,-0.251164 -0.391453,-0.422855 0.0468,-1.341876 0.744356,-1.560931 4.584602,-6.548331 9.64827,-12.530393 2.464872,-2.911923 8.252599,-9.779076 12.861614,-15.260341 4.609018,-5.481265 9.076766,-10.773028 9.928334,-11.759472 0.851567,-0.986444 1.464146,-1.877695 1.361288,-1.980556 -0.102861,-0.102858 -1.395667,0.68552 -2.872906,1.751953 C 83.410808,48.8947 76.511069,54.739025 59.426215,69.906075 49.534621,78.68732 48.24989,79.715223 45.716614,80.874996 42.656695,82.275873 41.523608,82.050167 26.350684,77.017412 17.927479,74.223493 11.975813,72.063239 9.6888836,70.969742 6.308311,69.353317 4.388192,68.142437 4.7296379,67.842301 5.0309276,67.577462 13.976472,62.6739 19.21139,59.904027 27.201569,55.676302 37.132847,50.753535 58.440092,40.459021 80.185955,29.952586 84.977235,27.514512 97.381706,20.643318 c 4.796104,-2.656701 10.892454,-5.896145 13.547444,-7.198762 4.60373,-2.258728 11.95437,-5.350256 13.78102,-5.796011 0.81447,-0.1987541 0.85645,-0.1540175 0.85645,0.9127535 0,2.0387145 -1.55812,9.2038705 -4.98552,22.9263085 -1.86103,7.451095 -5.08262,20.69489 -7.1591,29.430657 -5.44107,22.890691 -8.27087,34.202338 -9.09978,36.374784 -0.87815,2.301521 -3.94782,2.372226 -10.210665,0.235187 z"
     id="path13"
     inkscape:connector-curvature="0" />
  <path
     style="fill:#808080;fill-opacity:1;stroke-width:0.31143552"
     d="m 57.480609,121.62574 c 0.502773,-2.38534 0.810851,-8.89498 0.813275,-17.18436 0.0015,-5.010221 0.120797,-9.109491 0.265181,-9.109491 0.488503,0 6.723051,2.057023 10.404645,3.432902 3.277328,1.224797 3.639582,1.434249 3.465832,2.003929 -0.486605,1.59542 -4.664677,9.38586 -6.61097,12.32681 -2.264264,3.42143 -5.124013,6.74434 -7.260669,8.43661 l -1.269491,1.00545 z"
     id="path15"
     inkscape:connector-curvature="0" />
</svg>
